build/img/logo.svg

<svg width="78" height="35" viewBox="0 0 78 35" fill="none" xmlns="http://www.w3.org/2000/svg">
<path d="M17.3234 32.7096C25.4558 32.7096 32.0484 26.31 32.0484 18.4158C32.0484 10.5215 25.4558 4.12195 17.3234 4.12195C9.19098 4.12195 2.59842 10.5215 2.59842 18.4158C2.59842 26.31 9.19098 32.7096 17.3234 32.7096Z" fill="#24B34E"/>
<path d="M0 17.3235C0 13.8972 1.01601 10.5479 2.91954 7.6991C4.82307 4.85026 7.52861 2.62986 10.6941 1.31868C13.8596 0.00750907 17.3428 -0.335558 20.7031 0.332874C24.0636 1.0013 27.1504 2.65121 29.5731 5.07395C31.9959 7.49669 33.6457 10.5834 34.3141 13.9439C34.9826 17.3043 34.6395 20.7875 33.3283 23.9529C32.0172 27.1184 29.7968 29.824 26.948 31.7276C24.0991 33.631 20.7498 34.647 17.3235 34.647C12.729 34.647 8.3227 32.8219 5.07394 29.5731C1.82515 26.3243 0 21.918 0 17.3235Z" fill="#24B34E"/>
<path d="M25.7687 9.19495C25.5867 8.53127 25.1917 7.94575 24.6445 7.52842C24.0973 7.11111 23.4282 6.88508 22.74 6.88513H22.713C22.0138 6.88921 21.3355 7.12393 20.7833 7.55288C20.231 7.98184 19.8359 8.58103 19.6589 9.25751C19.482 9.934 19.5333 10.6499 19.8048 11.2944C20.0764 11.9387 20.553 12.4755 21.1606 12.8213V22.4234C22.3726 22.7287 23.4678 23.3841 24.3097 24.3078V12.7982C24.9169 12.4435 25.3893 11.8972 25.6527 11.2451C25.916 10.593 25.9555 9.87192 25.7648 9.19495H25.7687ZM22.7169 11.1198C22.5075 11.1198 22.3028 11.0577 22.1287 10.9414C21.9546 10.825 21.8189 10.6597 21.7388 10.4662C21.6587 10.2728 21.6377 10.06 21.6786 9.8546C21.7194 9.64922 21.8203 9.46058 21.9683 9.31256C22.1163 9.16445 22.3049 9.06368 22.5103 9.02278C22.7157 8.98197 22.9286 9.00295 23.122 9.08302C23.3155 9.16319 23.4808 9.2989 23.5971 9.4729C23.7134 9.647 23.7755 9.85171 23.7755 10.0611C23.7743 10.3417 23.6617 10.6104 23.4624 10.808C23.2631 11.0056 22.9936 11.1159 22.713 11.115L22.7169 11.1198ZM24.1836 26.7341C23.6564 25.6633 22.8393 24.762 21.8254 24.1325C20.8114 23.503 19.6411 23.1706 18.4476 23.1731H15.2138C14.7916 23.1744 14.3734 23.0925 13.9828 22.932C13.5923 22.7716 13.2371 22.5358 12.9377 22.238C12.6383 21.9404 12.4005 21.5866 12.2379 21.197C12.0752 20.8073 11.9909 20.3895 11.9897 19.9673V15.6499C12.0764 15.5989 12.1601 15.546 12.2419 15.4872C12.7736 15.1093 13.1685 14.5691 13.3672 13.9477C13.5658 13.3263 13.5576 12.6573 13.3438 12.0409C13.1298 11.4246 12.7219 10.8943 12.181 10.5295C11.64 10.1648 10.9955 9.98529 10.3439 10.018C9.69236 10.0507 9.069 10.2939 8.56729 10.711C8.06568 11.1281 7.71286 11.6967 7.56185 12.3313C7.41076 12.9659 7.46966 13.6325 7.72951 14.2308C7.98946 14.8291 8.4364 15.3271 9.00336 15.6499V20.0039C9.00336 23.5023 11.7068 26.3154 15.2138 26.3154H18.4476C18.9356 26.3144 19.4176 26.424 19.8571 26.6361C20.2967 26.8481 20.6825 27.157 20.9855 27.5396H24.5811L24.1836 26.7341ZM10.523 13.879C10.3137 13.879 10.109 13.817 9.93489 13.7006C9.76079 13.5843 9.62509 13.4189 9.54501 13.2255C9.46484 13.032 9.44386 12.8192 9.48477 12.6138C9.52557 12.4085 9.62643 12.2198 9.77445 12.0718C9.92247 11.9237 10.1111 11.8229 10.3165 11.782C10.5219 11.7412 10.7348 11.7622 10.9282 11.8423C11.1216 11.9224 11.287 12.0581 11.4032 12.2322C11.5196 12.4063 11.5817 12.611 11.5817 12.8204C11.5817 13.1011 11.4701 13.3704 11.2716 13.569C11.0731 13.7675 10.8039 13.879 10.523 13.879Z" fill="white"/>
<path d="M60.026 24.7713C61.6024 24.7713 63.0037 24.5461 64.0797 24.0707V22.0689C63.1288 22.4442 61.7776 22.6944 60.5765 22.6944C57.6988 22.6944 56.3977 21.9688 56.1224 19.6667H64.8053V17.4647C64.8053 14.512 62.9787 12.41 59.3754 12.41C55.4218 12.41 53.52 14.7622 53.52 18.5657C53.52 22.7695 55.8722 24.7713 60.026 24.7713ZM56.1224 17.89C56.1224 15.5379 56.9231 14.4619 59.4504 14.4619C61.5774 14.4619 62.4031 15.4378 62.4031 17.0643V17.89H56.1224ZM70.393 24.5211H73.3457L78 12.6603H75.1974L71.8694 21.8687L68.5413 12.6603H65.7138L68.0534 18.5907L70.393 24.5211Z" fill="white"/>
<path d="M40.1029 23.1594C39.1604 22.2502 38.6891 20.7697 38.6891 18.7178C38.6891 17.3332 38.931 16.1488 39.4148 15.1646C39.8986 14.1803 40.5658 13.4338 41.4166 12.925C42.2674 12.4175 43.2449 12.1637 44.3491 12.1637C44.9917 12.156 45.6321 12.2403 46.2508 12.414C46.83 12.5863 47.3788 12.8481 47.8773 13.1897V7.40747H50.6048V24.2729H48.2729L48.1025 23.0968C47.5891 23.5747 46.985 23.9449 46.3259 24.1853C45.6081 24.4237 44.855 24.5379 44.0989 24.5231C42.3781 24.5231 41.0461 24.0686 40.1029 23.1594ZM47.8725 21.2201V15.2897C47.0878 14.589 46.1036 14.2387 44.9198 14.2387C43.7688 14.2387 42.9026 14.6237 42.3213 15.3936C41.74 16.1636 41.4481 17.2812 41.4455 18.7467C41.4455 20.1313 41.7082 21.0988 42.2337 21.6493C42.7592 22.1998 43.6225 22.4751 44.8236 22.4751C46.0388 22.4725 47.0551 22.0542 47.8725 21.2201Z" fill="white"/>
</svg>

<svg width="78" height="35" fill="none" xmlns="http://www.w3.org/2000/svg"><path d="M17.323 32.71c8.133 0 14.725-6.4 14.725-14.294 0-7.895-6.592-14.294-14.725-14.294-8.132 0-14.725 6.4-14.725 14.294S9.191 32.71 17.323 32.71z" fill="#24B34E"/><path d="M0 17.323a17.323 17.323 0 1134.647 0 17.323 17.323 0 01-34.647 0z" fill="#24B34E"/><path d="M25.769 9.195a3.14 3.14 0 00-3.029-2.31h-.027a3.176 3.176 0 00-1.552 5.936v9.602a6.364 6.364 0 013.149 1.885v-11.51a3.177 3.177 0 001.455-3.603h.004zm-3.052 1.925a1.059 1.059 0 111.059-1.059 1.058 1.058 0 01-1.063 1.054l.004.005zm1.467 15.614a6.379 6.379 0 00-5.736-3.56h-3.234a3.212 3.212 0 01-3.224-3.207V15.65a3.016 3.016 0 10-2.986 0v4.354c0 3.498 2.703 6.311 6.21 6.311h3.234a3.228 3.228 0 012.537 1.225h3.596l-.397-.806zM10.523 13.88a1.058 1.058 0 110-2.116 1.058 1.058 0 010 2.116zm49.503 10.891c1.576 0 2.978-.225 4.054-.7v-2.002c-.951.375-2.302.625-3.503.625-2.878 0-4.18-.725-4.455-3.027h8.683v-2.202c0-2.953-1.826-5.055-5.43-5.055-3.953 0-5.855 2.352-5.855 6.156 0 4.204 2.352 6.205 6.506 6.205zm-3.904-6.881c0-2.352.801-3.428 3.328-3.428 2.127 0 2.953.976 2.953 2.602v.826h-6.28zm14.271 6.631h2.953L78 12.661h-2.803l-3.328 9.208-3.328-9.209h-2.827l2.34 5.93 2.339 5.931zm-30.29-1.361c-.943-.91-1.414-2.39-1.414-4.442 0-1.385.242-2.57.726-3.553.484-.985 1.15-1.731 2.002-2.24.85-.508 1.828-.761 2.932-.761a6.737 6.737 0 011.902.25 5.781 5.781 0 011.626.776V7.407h2.728v16.866h-2.332l-.17-1.176a5.246 5.246 0 01-1.777 1.088 6.652 6.652 0 01-2.227.338c-1.72 0-3.053-.454-3.996-1.364zm7.77-1.94v-5.93c-.785-.701-1.77-1.051-2.953-1.051-1.151 0-2.017.385-2.599 1.155-.581.77-.873 1.887-.875 3.353 0 1.384.262 2.352.788 2.902.525.55 1.389.826 2.59.826 1.215-.003 2.231-.42 3.049-1.255z" fill="#fff"/></svg>
